X: 9941
T: Dever The Dancer
R: slip jig
M: 9/8
K: Edorian
|:BEE BEF G2 A|BEE BAG FGA|BEE BEF G2 A|Bcd A2 G FED:|
ded =cAF G3|Add def gfe|ded =cAF G2 A|Bcd A2 G FED|
ded =cAF G3|Add def gfe|afd gec d2 A|Bcd ABG FED||

